img/bootstrap.svg

<svg width="256" height="256" viewBox="0 0 256 256" xmlns="http://www.w3.org/2000/svg" xmlns:xlink="http://www.w3.org/1999/xlink" preserveAspectRatio="xMidYMid"><g><path d="M0 222.991225C0 241.223474 14.7785318 256 33.0087747 256H222.991225C241.223474 256 256 241.221468 256 222.991225V33.0087747C256 14.7765263 241.221468.0 222.991225.0H33.0087747C14.7765263.0.0 14.7785318.0 33.0087747V222.991225z" fill="#563d7c"/><path d="M106.157563 113.238095V76.9845938H138.069328C141.108559 76.9845938 144.039202 77.2378593 146.861345 77.7443978 149.683488 78.2509362 152.179961 79.1554557 154.35084 80.4579832 156.52172 81.7605107 158.258397 83.5695496 159.560924 85.8851541 160.863452 88.2007585 161.514706 91.1675823 161.514706 94.7857143 161.514706 101.298352 159.560944 106.001853 155.653361 108.896359 151.745779 111.790864 146.752832 113.238095 140.67437 113.238095H106.157563v0zM72.07493 50.5v155h75.112045C154.133788 205.5 160.899594 204.631661 167.484594 202.894958 174.069594 201.158255 179.93088 198.480877 185.068627 194.862745 190.206375 191.244613 194.294803 186.577293 197.334034 180.860644 200.373264 175.143996 201.892857 168.37819 201.892857 160.563025 201.892857 150.866431 199.541107 142.581033 194.837535 135.706583 190.133963 128.832132 183.00635 124.020088 173.454482 121.270308 180.401295 117.941627 185.647508 113.672295 189.193277 108.462185 192.739047 103.252075 194.511905 96.7395349 194.511905 88.9243697 194.511905 81.6881057 193.317939 75.6097352 190.929972 70.6890756 188.542005 65.7684161 185.177193 61.8247114 180.835434 58.8578431 176.493676 55.8909749 171.283644 53.756309 165.205182 52.4537815 159.12672 51.151254 152.397096 50.5 145.016106 50.5H72.07493v0zm34.082633 128.515406V136.466387H143.279412C150.660401 136.466387 156.594049 138.166883 161.080532 141.567927 165.567016 144.968971 167.810224 150.649353 167.810224 158.609244 167.810224 162.661552 167.122789 165.990183 165.747899 168.595238 164.373009 171.200293 162.527789 173.262597 160.212185 174.782213 157.89658 176.301828 155.219203 177.387252 152.179972 178.038515 149.140741 178.689779 145.956833 179.015406 142.628151 179.015406H106.157563v0z" fill="#fff"/></g></svg>

<svg xmlns="http://www.w3.org/2000/svg" width="256" height="256" preserveAspectRatio="xMidYMid" xmlns:v="https://vecta.io/nano"><path d="M0 222.99C0 241.223 14.78 256 33.01 256H222.99c18.232 0 33.01-14.78 33.01-33.01V33.01C256 14.777 241.22 0 222.99 0H33.01C14.777 0 0 14.78 0 33.01V222.99z" fill="#563d7c"/><path d="M106.158 113.238V76.985h31.912c3.04 0 5.97.253 8.792.76s5.32 1.41 7.49 2.714 3.908 3.112 5.2 5.427 1.954 5.282 1.954 8.9c0 6.513-1.954 11.216-5.86 14.11s-8.9 4.342-14.98 4.342h-34.517zM72.075 50.5v155h75.112c6.947 0 13.713-.868 20.298-2.605s12.446-4.414 17.584-8.032 9.226-8.285 12.265-14.002 4.56-12.482 4.56-20.298c0-9.697-2.352-17.982-7.055-24.856s-11.83-11.686-21.383-14.436c6.947-3.33 12.193-7.598 15.74-12.808s5.32-11.723 5.32-19.538c0-7.236-1.194-13.315-3.582-18.235s-5.753-8.864-10.095-11.83-9.552-5.102-15.63-6.404-12.808-1.954-20.19-1.954h-72.94zm34.083 128.515v-42.55h37.122c7.38 0 13.315 1.7 17.8 5.102s6.73 9.08 6.73 17.04c0 4.052-.687 7.38-2.062 9.986s-3.22 4.667-5.536 6.187-4.993 2.605-8.032 3.256-6.223.977-9.552.977h-36.47z" fill="#fff"/></svg>
